;FLAVOR:Repetier
;TIME:2930
;MINX:-23.45
;MINY:-23.45
;MINZ:0.3
;MAXX:23.45
;MAXY:23.45
;MAXZ:19.9
;Generated with Cura_SteamEngine 4.8.0
M82 ;absolute extrusion mode
; info: M303 E0 S200 C8 ; Pid auto-tune 

M140 S68; Start heating up the base
G28 ; Home to top 3 endstops
; Autolevel and adjust first layer
; Adjust this value to fit your own printer!  (positive is thicker)
; This default value is intentionally very high to accommodate the
; variety of print heads used with this printer.  Many of you will
; need tiny values like Z0 or Z0.1.  Use feeler gauges to dial this
; in as accurately as possible.
; SB - G29 Z10

; Squirt and wipe ;
; SB - M109 S220 ; Wait for the temp to hit 220
G00 X125 Y-60 Z0.1 ;
G92 E0 ;
; SB - G01 E25 F100 ; Extrude a little bit to replace oozage from auto levelling
G01 X90 Y-50 F6000 ;
G01 Z5 ;

; Set the extruder to the requested print temperature
M104 S190.0
G92 E0
G92 E0
G1 F2400 E-5
;LAYER_COUNT:71
;LAYER:0
M107
M207 X30
G0 F3600 X23.45 Y-4.284 Z0.3
M207 X10
;TYPE:SKIRT
G1 F2400 E0
G1 F1200 X23.45 Y4.706 E0.33638
G1 X23.439 Y5.41 E0.36273
G1 X23.39 Y5.933 E0.38239
G1 X23.264 Y6.442 E0.40201
G1 X23.033 Y6.981 E0.42395
G1 X22.819 Y7.377 E0.44079
G1 X14.86 Y21.163 E1.03642
G1 X14.505 Y21.758 E1.06235
G1 X14.202 Y22.187 E1.082
G1 X13.838 Y22.565 E1.10164
G1 X13.421 Y22.884 E1.12128
G1 X12.96 Y23.135 E1.14092
G1 X12.466 Y23.314 E1.16058
G1 X11.951 Y23.416 E1.18023
G1 X11.592 Y23.44 E1.19369
G1 X10.904 Y23.45 E1.21944
G1 X-10.889 Y23.45 E2.03488
G1 X-11.59 Y23.44 E2.06111
G1 X-12.113 Y23.392 E2.08076
G1 X-12.623 Y23.266 E2.10042
G1 X-13.107 Y23.064 E2.12004
G1 X-13.555 Y22.791 E2.13967
G1 X-13.957 Y22.453 E2.15933
G1 X-14.303 Y22.058 E2.17898
G1 X-14.504 Y21.758 E2.19249
G1 X-14.89 Y21.11 E2.22071
G1 X-22.69 Y7.6 E2.80443
G1 X-23.003 Y7.039 E2.82846
G1 X-23.223 Y6.562 E2.84812
G1 X-23.368 Y6.058 E2.86774
G1 X-23.439 Y5.457 E2.89039
G1 X-23.449 Y5.046 E2.90577
G1 X-23.45 Y-4.701 E3.27048
G1 X-23.44 Y-5.405 E3.29682
G1 X-23.392 Y-5.928 E3.31648
G1 X-23.266 Y-6.437 E3.3361
G1 X-23.029 Y-6.989 E3.35857
G1 X-22.82 Y-7.375 E3.375
G1 X-14.834 Y-21.206 E3.9726
G1 X-14.502 Y-21.761 E3.99679
G1 X-14.199 Y-22.19 E4.01645
G1 X-13.834 Y-22.568 E4.03611
G1 X-13.417 Y-22.886 E4.05573
G1 X-12.955 Y-23.137 E4.0754
G1 X-12.462 Y-23.315 E4.09502
G1 X-11.947 Y-23.416 E4.11465
G1 X-11.591 Y-23.44 E4.128
G1 X-10.904 Y-23.45 E4.15371
G1 X10.889 Y-23.45 E4.96916
G1 X11.59 Y-23.44 E4.99539
G1 X12.113 Y-23.392 E5.01504
G1 X12.623 Y-23.266 E5.0347
G1 X13.107 Y-23.064 E5.05432
G1 X13.555 Y-22.791 E5.07395
G1 X13.957 Y-22.453 E5.0936
G1 X14.303 Y-22.058 E5.11325
G1 X14.504 Y-21.758 E5.12676
G1 X14.89 Y-21.11 E5.15499
G1 X22.625 Y-7.712 E5.73386
G1 X22.964 Y-7.106 E5.75984
G1 X23.185 Y-6.63 E5.77947
G1 X23.368 Y-5.914 E5.80713
G1 X23.433 Y-5.267 E5.83146
G1 X23.45 Y-4.284 E5.86825
M207 X30
G0 F3600 X23.15 Y-4.339
M207 X10
G1 F1200 X23.15 Y4.701 E6.2065
G1 X23.139 Y5.405 E6.23285
G1 X23.091 Y5.905 E6.25164
G1 X22.964 Y6.39 E6.2704
G1 X22.61 Y7.135 E6.30126
G1 X22.559 Y7.227 E6.3052
G1 X14.602 Y21.009 E6.90067
G1 X14.247 Y21.604 E6.92659
G1 X13.957 Y22.013 E6.94535
G1 X13.605 Y22.371 E6.96414
G1 X13.201 Y22.668 E6.9829
G1 X12.755 Y22.897 E7.00166
G1 X12.278 Y23.053 E7.02044
G1 X11.588 Y23.14 E7.04646
G1 X10.9 Y23.15 E7.07221
G1 X-10.885 Y23.15 E7.88735
G1 X-11.586 Y23.14 E7.91358
G1 X-12.085 Y23.093 E7.93234
G1 X-12.571 Y22.967 E7.95112
G1 X-13.03 Y22.766 E7.96987
G1 X-13.452 Y22.494 E7.98866
G1 X-13.825 Y22.159 E8.00742
G1 X-14.246 Y21.604 E8.03348
G1 X-14.63 Y20.96 E8.06154
G1 X-22.428 Y7.454 E8.64509
G1 X-22.741 Y6.893 E8.66912
G1 X-22.95 Y6.437 E8.68789
G1 X-23.083 Y5.953 E8.70668
G1 X-23.139 Y5.449 E8.72565
G1 X-23.149 Y5.046 E8.74073
G1 X-23.15 Y-4.697 E9.10529
G1 X-23.14 Y-5.401 E9.13164
G1 X-23.093 Y-5.9 E9.15039
G1 X-22.967 Y-6.386 E9.16918
G1 X-22.765 Y-6.847 E9.18801
G1 X-22.56 Y-7.225 E9.2041
G1 X-14.576 Y-21.052 E9.80153
G1 X-14.244 Y-21.607 E9.82573
G1 X-13.953 Y-22.016 E9.84451
G1 X-13.601 Y-22.373 E9.86327
G1 X-13.197 Y-22.67 E9.88203
G1 X-12.75 Y-22.899 E9.90083
G1 X-12.273 Y-23.054 E9.91959
G1 X-11.587 Y-23.14 E9.94546
G1 X-10.9 Y-23.15 E9.97117
G1 X10.885 Y-23.15 E10.78632
G1 X11.586 Y-23.14 E10.81255
G1 X12.085 Y-23.093 E10.8313
G1 X12.571 Y-22.967 E10.85009
G1 X13.03 Y-22.766 E10.86884
G1 X13.452 Y-22.494 E10.88762
G1 X13.825 Y-22.159 E10.90638
G1 X14.246 Y-21.604 E10.93245
G1 X14.63 Y-20.96 E10.9605
G1 X22.363 Y-7.566 E11.53921
G1 X22.702 Y-6.96 E11.56519
G1 X22.911 Y-6.504 E11.58396
G1 X23.071 Y-5.872 E11.60835
G1 X23.134 Y-5.262 E11.6313
G1 X23.15 Y-4.339 E11.66584
M207 X30
G1 F2400 E6.66584
;MESH:xyzcalibration_esagono.stl
G0 F3600 X20.665 Y-4.339
G0 X19.53 Y-4.339
G0 X19.244 Y-5.166
M207 X10
;TYPE:WALL-INNER
G1 F2400 E11.66584
G1 F1200 X19.25 Y-5.12 E11.66758
G1 X19.25 Y5.157 E12.05212
G1 X11.114 Y19.25 E12.66101
G1 X-11.114 Y19.25 E13.49273
G1 X-19.25 Y5.157 E14.10162
G1 X-19.25 Y-5.157 E14.48755
G1 X-11.114 Y-19.25 E15.09644
G1 X11.114 Y-19.25 E15.92816
G1 X19.244 Y-5.166 E16.53665
M207 X30
G0 F3600 X19.535 Y-5.263
M207 X10
G1 F1200 X19.55 Y-5.141 E16.54125
G1 X19.55 Y5.238 E16.92961
G1 X11.287 Y19.55 E17.54798
G1 X-11.287 Y19.55 E18.39264
G1 X-19.55 Y5.238 E19.01101
G1 X-19.55 Y-5.238 E19.403
G1 X-11.287 Y-19.55 E20.02136
G1 X11.287 Y-19.55 E20.86603
G1 X19.535 Y-5.263 E21.4833
M207 X30
G0 F3600 X19.826 Y-5.36
M207 X10
;TYPE:WALL-OUTER
G1 F1200 X19.85 Y-5.16 E21.49084
G1 X19.85 Y5.319 E21.88294
G1 X11.46 Y19.85 E22.51078
G1 X-11.46 Y19.85 E23.36839
G1 X-19.85 Y5.319 E23.99623
G1 X-19.85 Y-5.319 E24.39428
G1 X-11.46 Y-19.85 E25.02212
G1 X11.46 Y-19.85 E25.87973
G1 X19.826 Y-5.36 E26.50579
M207 X30
G0 F3600 X19.843 Y-5.211
G0 X18.96 Y-5.078
M207 X10
;TYPE:SKIN
G1 F1200 X18.96 Y5.08 E26.88588
G1 X10.946 Y18.96 E27.48559
G1 X-10.946 Y18.96 E28.30474
G1 X-18.96 Y5.08 E28.90444
G1 X-18.96 Y-5.08 E29.28461
G1 X-10.946 Y-18.96 E29.88432
G1 X10.946 Y-18.96 E30.70346
G1 X18.96 Y-5.078 E31.30324
M207 X30
G0 F3600 X10.449 Y-18.824
M207 X10
G1 F1200 X11.44 Y-17.833 E31.35568
G1 X11.493 Y-17.78
M207 X30
G0 F3600 X12.019 Y-16.83
M207 X10
G1 F1200 X10.025 Y-18.824 E31.46119
M207 X30
G0 F3600 X9.601 Y-18.824
M207 X10
G1 F1200 X12.599 Y-15.826 E31.61984
G1 X12.652 Y-15.773
M207 X30
G0 F3600 X13.178 Y-14.823
M207 X10
G1 F1200 X9.176 Y-18.824 E31.83158
M207 X30
G0 F3600 X8.752 Y-18.824
M207 X10
G1 F1200 X13.757 Y-13.819 E32.09643
G1 X13.81 Y-13.766
M207 X30
G0 F3600 X14.336 Y-12.816
M207 X10
G1 F1200 X8.328 Y-18.824 E32.41435
M207 X30
G0 F3600 X7.904 Y-18.824
M207 X10
G1 F1200 X14.916 Y-11.812 E32.7854
G1 X14.969 Y-11.759
M207 X30
G0 F3600 X15.495 Y-10.808
M207 X10
G1 F1200 X7.479 Y-18.824 E33.20958
M207 X30
G0 F3600 X7.055 Y-18.824
M207 X10
G1 F1200 X16.074 Y-9.805 E33.68684
G1 X16.127 Y-9.752
M207 X30
G0 F3600 X16.654 Y-8.801
M207 X10
G1 F1200 X6.631 Y-18.824 E34.21722
M207 X30
G0 F3600 X6.206 Y-18.824
M207 X10
G1 F1200 X17.233 Y-7.797 E34.80073
G1 X17.286 Y-7.744
M207 X30
G0 F3600 X17.812 Y-6.794
M207 X10
G1 F1200 X5.782 Y-18.824 E35.43732
M207 X30
G0 F3600 X5.358 Y-18.824
M207 X10
G1 F1200 X18.392 Y-5.79 E36.12703
G1 X18.445 Y-5.737
M207 X30
G0 F3600 X18.824 Y-4.934
M207 X10
G1 F1200 X4.934 Y-18.824 E36.86204
M207 X30
G0 F3600 X4.509 Y-18.824
M207 X10
G1 F1200 X18.824 Y-4.509 E37.61954
M207 X30
G0 F3600 X18.824 Y-4.085
M207 X10
G1 F1200 X4.085 Y-18.824 E38.39948
M207 X30
G0 F3600 X3.661 Y-18.824
M207 X10
G1 F1200 X18.824 Y-3.661 E39.20185
M207 X30
G0 F3600 X18.824 Y-3.237
M207 X10
G1 F1200 X3.237 Y-18.824 E40.02666
M207 X30
G0 F3600 X2.812 Y-18.824
M207 X10
G1 F1200 X18.824 Y-2.812 E40.87396
M207 X30
G0 F3600 X18.824 Y-2.388
M207 X10
G1 F1200 X2.388 Y-18.824 E41.7437
M207 X30
G0 F3600 X1.964 Y-18.824
M207 X10
G1 F1200 X18.824 Y-1.964 E42.63587
M207 X30
G0 F3600 X18.824 Y-1.54
M207 X10
G1 F1200 X1.54 Y-18.824 E43.55048
M207 X30
G0 F3600 X1.115 Y-18.824
M207 X10
G1 F1200 X18.824 Y-1.115 E44.48758
M207 X30
G0 F3600 X18.824 Y-.691
M207 X10
G1 F1200 X0.691 Y-18.824 E45.44712
M207 X30
G0 F3600 X0.267 Y-18.824
M207 X10
G1 F1200 X18.824 Y-.267 E46.42909
M207 X30
G0 F3600 X18.824 Y0.156
M207 X10
G1 F1200 X-.156 Y-18.824 E47.43345
M207 X30
G0 F3600 X-.581 Y-18.824
M207 X10
G1 F1200 X18.824 Y0.581 E48.46029
M207 X30
G0 F3600 X18.824 Y1.005
M207 X10
G1 F1200 X-1.005 Y-18.824 E49.50957
M207 X30
G0 F3600 X-1.429 Y-18.824
M207 X10
G1 F1200 X18.824 Y1.429 E50.58129
M207 X30
G0 F3600 X18.824 Y1.854
M207 X10
G1 F1200 X-1.854 Y-18.824 E51.6755
M207 X30
G0 F3600 X-2.278 Y-18.824
M207 X10
G1 F1200 X18.824 Y2.278 E52.79215
M207 X30
G0 F3600 X18.824 Y2.702
M207 X10
G1 F1200 X-2.702 Y-18.824 E53.93123
M207 X30
G0 F3600 X-3.126 Y-18.824
M207 X10
G1 F1200 X18.824 Y3.126 E55.09275
M207 X30
G0 F3600 X18.824 Y3.551
M207 X10
G1 F1200 X-3.551 Y-18.824 E56.27675
M207 X30
G0 F3600 X-3.975 Y-18.824
M207 X10
G1 F1200 X18.824 Y3.975 E57.4832
M207 X30
G0 F3600 X18.824 Y4.399
M207 X10
G1 F1200 X-4.399 Y-18.824 E58.71208
M207 X30
G0 F3600 X-4.823 Y-18.824
M207 X10
G1 F1200 X18.824 Y4.823 E59.9634
M207 X30
G0 F3600 X18.749 Y5.173
M207 X10
G1 F1200 X-5.248 Y-18.824 E61.23324
M207 X30
G0 F3600 X-5.672 Y-18.824
M207 X10
G1 F1200 X18.594 Y5.441 E62.51728
M207 X30
G0 F3600 X18.439 Y5.711
M207 X10
G1 F1200 X-6.096 Y-18.824 E63.81559
M207 X30
G0 F3600 X-6.52 Y-18.824
M207 X10
G1 F1200 X18.283 Y5.98 E65.12811
M207 X30
G0 F3600 X18.128 Y6.249
M207 X10
G1 F1200 X-6.945 Y-18.824 E66.45488
M207 X30
G0 F3600 X-7.369 Y-18.824
M207 X10
G1 F1200 X17.973 Y6.518 E67.79589
M207 X30
G0 F3600 X17.817 Y6.786
M207 X10
G1 F1200 X-7.793 Y-18.824 E69.15109
M207 X30
G0 F3600 X-8.217 Y-18.824
M207 X10
G1 F1200 X17.662 Y7.056 E70.52054
M207 X30
G0 F3600 X17.507 Y7.324
M207 X10
G1 F1200 X-8.642 Y-18.824 E71.90423
M207 X30
G0 F3600 X-9.066 Y-18.824
M207 X10
G1 F1200 X17.352 Y7.594 E73.30218
M207 X30
G0 F3600 X17.196 Y7.863
M207 X10
G1 F1200 X-9.49 Y-18.824 E74.71434
M207 X30
G0 F3600 X-9.915 Y-18.824
M207 X10
G1 F1200 X17.041 Y8.131 E76.14073
M207 X30
G0 F3600 X16.886 Y8.401
M207 X10
G1 F1200 X-10.339 Y-18.824 E77.58138
M207 X30
G0 F3600 X-10.763 Y-18.824
M207 X10
G1 F1200 X16.73 Y8.669 E79.03622
M207 X30
G0 F3600 X16.575 Y8.939
M207 X10
G1 F1200 X-10.985 Y-18.622 E80.49462
M207 X30
G0 F3600 X-11.141 Y-18.353
M207 X10
G1 F1200 X16.42 Y9.207 E81.95303
M207 X30
G0 F3600 X16.264 Y9.476
M207 X10
G1 F1200 X-11.296 Y-18.084 E83.41141
M207 X30
G0 F3600 X-11.451 Y-17.815
M207 X10
G1 F1200 X16.11 Y9.746 E84.86984
M207 X30
G0 F3600 X15.954 Y10.014
M207 X10
G1 F1200 X-11.606 Y-17.546 E86.32822
M207 X30
G0 F3600 X-11.762 Y-17.277
M207 X10
G1 F1200 X15.799 Y10.284 E87.78666
M207 X30
G0 F3600 X15.644 Y10.552
M207 X10
G1 F1200 X-11.917 Y-17.008 E89.24506
M207 X30
G0 F3600 X-12.072 Y-16.739
M207 X10
G1 F1200 X15.488 Y10.821 E90.70344
M207 X30
G0 F3600 X15.333 Y11.09
M207 X10
G1 F1200 X-12.227 Y-16.47 E92.16182
M207 X30
G0 F3600 X-12.382 Y-16.201
M207 X10
G1 F1200 X15.178 Y11.359 E93.6202
M207 X30
G0 F3600 X15.023 Y11.629
M207 X10
G1 F1200 X-12.538 Y-15.932 E95.07864
M207 X30
G0 F3600 X-12.693 Y-15.663
M207 X10
G1 F1200 X14.867 Y11.897 E96.53702
M207 X30
G0 F3600 X14.712 Y12.166
M207 X10
G1 F1200 X-12.848 Y-15.394 E97.9954
M207 X30
G0 F3600 X-13.004 Y-15.125
M207 X10
G1 F1200 X14.557 Y12.435 E99.4538
M207 X30
G0 F3600 X14.401 Y12.704
M207 X10
G1 F1200 X-13.159 Y-14.856 E100.91218
M207 X30
G0 F3600 X-13.314 Y-14.587
M207 X10
G1 F1200 X14.246 Y12.973 E102.37056
M207 X30
G0 F3600 X14.091 Y13.242
M207 X10
G1 F1200 X-13.47 Y-14.318 E103.82897
M207 X30
G0 F3600 X-13.625 Y-14.049
M207 X10
G1 F1200 X13.935 Y13.511 E105.28735
M207 X30
G0 F3600 X13.78 Y13.78
M207 X10
G1 F1200 X-13.78 Y-13.78 E106.74573
M207 X30
G0 F3600 X-13.935 Y-13.511
M207 X10
G1 F1200 X13.625 Y14.049 E108.20411
M207 X30
G0 F3600 X13.47 Y14.318
M207 X10
G1 F1200 X-14.091 Y-13.242 E109.66252
M207 X30
G0 F3600 X-14.246 Y-12.973
M207 X10
G1 F1200 X13.314 Y14.587 E111.1209
M207 X30
G0 F3600 X13.159 Y14.856
M207 X10
G1 F1200 X-14.401 Y-12.704 E112.57928
M207 X30
G0 F3600 X-14.557 Y-12.435
M207 X10
G1 F1200 X13.004 Y15.125 E114.03768
M207 X30
G0 F3600 X12.848 Y15.394
M207 X10
G1 F1200 X-14.712 Y-12.166 E115.49606
M207 X30
G0 F3600 X-14.867 Y-11.897
M207 X10
G1 F1200 X12.693 Y15.663 E116.95444
M207 X30
G0 F3600 X12.538 Y15.932
M207 X10
G1 F1200 X-15.023 Y-11.629 E118.41288
M207 X30
G0 F3600 X-15.178 Y-11.359
M207 X10
G1 F1200 X12.382 Y16.201 E119.87126
M207 X30
G0 F3600 X12.227 Y16.47
M207 X10
G1 F1200 X-15.333 Y-11.09 E121.32964
M207 X30
G0 F3600 X-15.488 Y-10.821
M207 X10
G1 F1200 X12.072 Y16.739 E122.78802
M207 X30
G0 F3600 X11.917 Y17.008
M207 X10
G1 F1200 X-15.644 Y-10.552 E124.24642
M207 X30
G0 F3600 X-15.799 Y-10.284
M207 X10
G1 F1200 X11.762 Y17.277 E125.70486
M207 X30
G0 F3600 X11.606 Y17.546
M207 X10
G1 F1200 X-15.954 Y-10.014 E127.16324
M207 X30
G0 F3600 X-16.11 Y-9.746
M207 X10
G1 F1200 X11.451 Y17.815 E128.62167
M207 X30
G0 F3600 X11.296 Y18.084
M207 X10
G1 F1200 X-16.264 Y-9.476 E130.08005
M207 X30
G0 F3600 X-16.42 Y-9.207
M207 X10
G1 F1200 X11.141 Y18.353 E131.53846
M207 X30
G0 F3600 X10.985 Y18.622
M207 X10
G1 F1200 X-16.575 Y-8.939 E132.99686
M207 X30
G0 F3600 X-16.73 Y-8.669
M207 X10
G1 F1200 X10.763 Y18.824 E134.4517
M207 X30
G0 F3600 X10.339 Y18.824
M207 X10
G1 F1200 X-16.886 Y-8.401 E135.89235
M207 X30
G0 F3600 X-17.041 Y-8.131
M207 X10
G1 F1200 X9.915 Y18.824 E137.31874
M207 X30
G0 F3600 X9.49 Y18.824
M207 X10
G1 F1200 X-17.196 Y-7.863 E138.7309
M207 X30
G0 F3600 X-17.352 Y-7.594
M207 X10
G1 F1200 X9.066 Y18.824 E140.12885
M207 X30
G0 F3600 X8.642 Y18.824
M207 X10
G1 F1200 X-17.507 Y-7.324 E141.51254
M207 X30
G0 F3600 X-17.662 Y-7.056
M207 X10
G1 F1200 X8.217 Y18.824 E142.88199
M207 X30
G0 F3600 X7.793 Y18.824
M207 X10
G1 F1200 X-17.817 Y-6.786 E144.23719
M207 X30
G0 F3600 X-17.973 Y-6.518
M207 X10
G1 F1200 X7.369 Y18.824 E145.5782
M207 X30
G0 F3600 X6.945 Y18.824
M207 X10
G1 F1200 X-18.128 Y-6.249 E146.90497
M207 X30
G0 F3600 X-18.283 Y-5.98
M207 X10
G1 F1200 X6.52 Y18.824 E148.21749
M207 X30
G0 F3600 X6.096 Y18.824
M207 X10
G1 F1200 X-18.439 Y-5.711 E149.5158
M207 X30
G0 F3600 X-18.594 Y-5.441
M207 X10
G1 F1200 X5.672 Y18.824 E150.79984
M207 X30
G0 F3600 X5.248 Y18.824
M207 X10
G1 F1200 X-18.749 Y-5.173 E152.06968
M207 X30
G0 F3600 X-18.823 Y-4.823
M207 X10
G1 F1200 X4.823 Y18.824 E153.32097
M207 X30
G0 F3600 X4.399 Y18.824
M207 X10
G1 F1200 X-18.823 Y-4.398 E154.5498
M207 X30
G0 F3600 X-18.823 Y-3.974
M207 X10
G1 F1200 X3.975 Y18.824 E155.75619
M207 X30
G0 F3600 X3.551 Y18.824
M207 X10
G1 F1200 X-18.823 Y-3.55 E156.94015
M207 X30
G0 F3600 X-18.823 Y-3.126
M207 X10
G1 F1200 X3.126 Y18.824 E158.10164
M207 X30
G0 F3600 X2.702 Y18.824
M207 X10
G1 F1200 X-18.823 Y-2.701 E159.24067
M207 X30
G0 F3600 X-18.823 Y-2.277
M207 X10
G1 F1200 X2.278 Y18.824 E160.35726
M207 X30
G0 F3600 X1.854 Y18.824
M207 X10
G1 F1200 X-18.823 Y-1.853 E161.45142
M207 X30
G0 F3600 X-18.823 Y-1.429
M207 X10
G1 F1200 X1.429 Y18.824 E162.52311
M207 X30
G0 F3600 X1.005 Y18.824
M207 X10
G1 F1200 X-18.823 Y-1.004 E163.57234
M207 X30
G0 F3600 X-18.823 Y-.58
M207 X10
G1 F1200 X0.581 Y18.824 E164.59913
M207 X30
G0 F3600 X0.156 Y18.824
M207 X10
G1 F1200 X-18.823 Y-.156 E165.60346
M207 X30
G0 F3600 X-18.823 Y0.267
M207 X10
G1 F1200 X-.267 Y18.824 E166.58541
M207 X30
G0 F3600 X-.691 Y18.824
M207 X10
G1 F1200 X-18.823 Y0.692 E167.54489
M207 X30
G0 F3600 X-18.823 Y1.116
M207 X10
G1 F1200 X-1.115 Y18.824 E168.48193
M207 X30
G0 F3600 X-1.54 Y18.824
M207 X10
G1 F1200 X-18.823 Y1.54 E169.39652
M207 X30
G0 F3600 X-18.823 Y1.965
M207 X10
G1 F1200 X-1.964 Y18.824 E170.28864
M207 X30
G0 F3600 X-2.388 Y18.824
M207 X10
G1 F1200 X-18.823 Y2.389 E171.15832
M207 X30
G0 F3600 X-18.823 Y2.813
M207 X10
G1 F1200 X-2.812 Y18.824 E172.00557
M207 X30
G0 F3600 X-3.237 Y18.824
M207 X10
G1 F1200 X-18.823 Y3.237 E172.83035
M207 X30
G0 F3600 X-18.823 Y3.662
M207 X10
G1 F1200 X-3.661 Y18.824 E173.63267
M207 X30
G0 F3600 X-4.085 Y18.824
M207 X10
G1 F1200 X-18.823 Y4.086 E174.41256
M207 X30
G0 F3600 X-18.823 Y4.51
M207 X10
G1 F1200 X-4.509 Y18.824 E175.17
M207 X30
G0 F3600 X-4.934 Y18.824
M207 X10
G1 F1200 X-18.823 Y4.934 E175.90499
G1 X-18.876 Y4.881
M207 X30
